assets/icons/photoshop-icon.svg

<svg xmlns="http://www.w3.org/2000/svg" viewBox="0 0 76 76" fill="currentColor">
  <path d="M21.8953 23.1174c1.9228-.3501 4.5884-.6119 8.2146-.6119 3.9329 0 6.8167.83 8.696 2.4029 1.7478 1.4423 2.8842 3.7579 2.8842 6.5108 0 2.7966-.8737 5.1126-2.5342 6.6859-2.1411 2.141-5.5058 3.1461-9.3074 3.1461-.0051 0-.0102 0-.0152 0-.998 0-1.9158-.0436-2.6152-.175v11.0993h-5.3309V23.1174zm5.3309 13.7208c.6558.175 1.5299.2182 2.6223.2182 4.0198 0 6.4667-1.966 6.4667-5.4185 0-3.277-2.2724-5.0253-5.9867-5.0253-1.4851 0-2.5338.1314-3.1023.2627v9.9629zm15.6413.2619c0-3.758 3.1029-6.6859 8.0409-6.6859 2.3592 0 4.4135.6119 5.6363 1.2674l-1.0483 3.8015c-.9178-.5246-2.6224-1.2232-4.5007-1.2232-1.9224 0-2.9715.9178-2.9715 2.2278 0 1.3556 1.005 2.0106 3.7143 2.972 3.8452 1.3983 5.6362 3.3648 5.6808 6.5104 0 3.8453-3.0152 6.6863-8.6528 6.6863-2.5779 0-4.894-0.6559-6.4663-1.5296l1.0482-3.8889c1.2237.7432 3.5398 1.5288 5.4626 1.5288 2.3597 0 3.4075-.961 3.4075-2.3588 0-1.4424-.8734-2.1856-3.4948-3.1034-4.1516-1.4415-5.8994-3.7143-5.8562-6.2044z"/>
</svg>

<?xml version="1.0" encoding="utf-8"?>
<!DOCTYPE svg PUBLIC "-//W3C//DTD SVG 1.1//EN" "http://www.w3.org/Graphics/SVG/1.1/DTD/svg11.dtd">
<!-- Uploaded to: SVG Repo, www.svgrepo.com, Generator: SVG Repo Mixer Tools -->
<svg width="800px" height="800px" viewBox="0 0 76 76" xmlns="http://www.w3.org/2000/svg" xmlns:xlink="http://www.w3.org/1999/xlink" version="1.1" baseProfile="full" enable-background="new 0 0 76.00 76.00" xml:space="preserve">
	<path fill="#000000" fill-opacity="1" stroke-width="0.2" stroke-linejoin="round" d="M 21.8953,23.1174C 23.8181,22.7673 26.4837,22.5055 30.1099,22.5055C 34.0428,22.5055 36.9266,23.3355 38.8059,24.9084C 40.5537,26.3507 41.6901,28.6663 41.6901,31.4192C 41.6901,34.2158 40.8164,36.5318 39.1559,38.1051C 37.0148,40.2461 33.6501,41.2512 29.8485,41.2512C 28.8434,41.2512 27.9256,41.2076 27.2262,41.0762L 27.2262,52.1755L 21.8953,52.1755L 21.8953,23.1174 Z M 27.2262,36.8382C 27.882,37.0132 28.7561,37.0564 29.8485,37.0564C 33.8683,37.0564 36.3152,35.0904 36.3152,31.6379C 36.3152,28.3609 34.0428,26.6126 30.3285,26.6126C 28.8434,26.6126 27.7947,26.744 27.2262,26.8753L 27.2262,36.8382 Z M 42.8675,37.1001C 42.8675,33.3421 45.9704,30.4142 50.9084,30.4142C 53.2676,30.4142 55.3219,31.0261 56.5447,31.6816L 55.4964,35.4831C 54.5786,34.9585 52.874,34.2599 50.9957,34.2599C 49.0733,34.2599 48.0242,35.1777 48.0242,36.4877C 48.0242,37.8433 49.0292,38.4983 51.7385,39.4597C 55.5837,40.858 57.3747,42.8245 57.4193,45.9701C 57.4193,49.8154 54.4041,52.6564 48.7665,52.6564C 46.1886,52.6564 43.8725,52.0005 42.3002,51.1268L 43.3484,47.2379C 44.5721,47.9811 46.8882,48.7667 48.811,48.7667C 51.1707,48.7667 52.2185,47.8057 52.2185,46.4079C 52.2185,44.9655 51.3451,44.2223 48.7237,43.3045C 44.5721,41.863 42.8243,39.5902 42.8675,37.1001 Z "/>
</svg>
